_src/static/img/icon/menu.svg

<svg width="48" height="48" viewBox="0 0 48 48" fill="none" xmlns="http://www.w3.org/2000/svg">
<circle cx="24" cy="24" r="23.5" stroke="white" stroke-opacity="0.295743"/>
<path fill-rule="evenodd" clip-rule="evenodd" d="M13 16C13 15.4477 13.4477 15 14 15H34C34.5523 15 35 15.4477 35 16C35 16.5523 34.5523 17 34 17H14C13.4477 17 13 16.5523 13 16ZM13 24C13 23.4477 13.4477 23 14 23H34C34.5523 23 35 23.4477 35 24C35 24.5523 34.5523 25 34 25H14C13.4477 25 13 24.5523 13 24ZM14 31C13.4477 31 13 31.4477 13 32C13 32.5523 13.4477 33 14 33H34C34.5523 33 35 32.5523 35 32C35 31.4477 34.5523 31 34 31H14Z" fill="white"/>
</svg>

<svg width="48" height="48" fill="none" xmlns="http://www.w3.org/2000/svg"><circle cx="24" cy="24" r="23.5" stroke="#fff" stroke-opacity=".296"/><path fill-rule="evenodd" clip-rule="evenodd" d="M13 16a1 1 0 011-1h20a1 1 0 110 2H14a1 1 0 01-1-1zm0 8a1 1 0 011-1h20a1 1 0 110 2H14a1 1 0 01-1-1zm1 7a1 1 0 100 2h20a1 1 0 100-2H14z" fill="#fff"/></svg>
